common/resources/fonts/svg/check.svg

<?xml version="1.0" encoding="UTF-8" standalone="no"?>
<svg width="1024px" height="1024px" viewBox="0 0 1024 1024" version="1.1" xmlns="http://www.w3.org/2000/svg" xmlns:xlink="http://www.w3.org/1999/xlink">
    <!-- Generator: Sketch 3.7.1 (28215) - http://www.bohemiancoding.com/sketch -->
    <title>check</title>
    <desc>Created with Sketch.</desc>
    <defs></defs>
    <g id="Page-1" stroke="none" stroke-width="1" fill="none" fill-rule="evenodd">
        <g id="check" fill="#000000">
            <path d="M411.058466,870.807246 C406.567741,873.900857 402.575984,876.196117 397.187114,876.196117 C391.798243,876.196117 387.806487,874.000651 383.315761,870.807246 L57.6882525,544.880356 C50.1039158,537.695195 50.1039158,524.721987 57.6882525,517.536826 L191.911053,383.314025 C199.096214,376.128864 212.069422,376.128864 219.254583,383.314025 L397.08732,561.945113 L804.745417,153.388871 C811.930578,146.20371 824.903786,146.20371 832.088947,153.388871 L966.311747,287.611672 C973.896084,294.796833 973.896084,307.77004 966.311747,314.955201 L411.058466,870.807246 L411.058466,870.807246 Z" id="Shape"></path>
        </g>
    </g>
</svg>

<svg width="1024" height="1024" viewBox="0 0 1024 1024">
    <path d="M411.058 870.807c-4.49 3.094-8.482 5.39-13.87 5.39-5.39 0-9.382-2.196-13.872-5.39L57.688 544.88c-7.584-7.185-7.584-20.158 0-27.343l134.223-134.223c7.185-7.185 20.158-7.185 27.344 0l177.832 178.631L804.745 153.39c7.186-7.185 20.159-7.185 27.344 0l134.223 134.223c7.584 7.185 7.584 20.158 0 27.343L411.058 870.807z" fill-rule="evenodd"/>
</svg>
